X:1
T:Hear the Chiming Easter Bells
T:Hear the Chiming Easter Bells
T:John Henry Gower
T:Camilla J. Knight, 1911
T:Public Domain Courtesy of the Cyber Hymnal™
C:John Henry Gower
Z:Public Domain
Z:Courtesy of the Cyber Hymnal™
%%score ( 1 2 ) ( 3 4 )
L:1/8
Q:1/4=110
M:4/4
K:D
V:1 treble 
V:2 treble 
V:3 bass 
V:4 bass 
V:1
 [Ad]3 [Ac] [Ae]2 [Ad]2 | [FA]3 [F^G] [FB]2 [FA]2 | D3 [DE] (DE) ([DF][CG]) | ([DA]2 [FB]2) A4 | %4
w: 1.~Hear the chim- ing|East- er bells, Their|joy- ous mu- * sic *|ring- * ing;|
w: 2.~An- gels came from|Heav’n a- bove To|tell the won- * drous *|sto- * ry:|
w: 3.~“Seek Him not a-|mong the dead, The|grave is not * His *|pri- * son;|
w: 4.~Christ the Lord is|ris’n to- day, Sal-|va- tion to * us *|bring- * ing;|
 [Fd]3 [Fc] [Ge]2 [Gd]2 | [FA]3 [^E^G] [EB]2 [FA]2 | (cd) [Ee]2 ([FA][^GB]) [Ac]2 | (E2 B2) A4 || %8
w: Hear the child- ren’s|hap- py voic- es,|East- * er car- * ols|sing- * ing.|
w: “Christ is ris- en|from the dead, The|Lord * of life * and|glo- * ry.”|
w: Go and His dis-|ci- ples tell, That|Christ * the Lord * is|ris- * en.”|
w: Eas- ter bells, ring|out your chimes, While|voic- * es glad * are|sing- * ing.|
"^Refrain" (de) [Ad]2 (AB) [FA]2 | (FG) [DF]2 (DE) [A,D]2 | [Gd]3 [GB] ([EG][FA]) [GB]2 | %11
w: |||
w: |||
w: |||
w: |||
 [FA]3 [GB] [FA]2 [GA]2 | [Ad]2 [Ad]2 [^Gf]3 [Ge] | [^Gd]2 [GB]2 A2 [EA]2 | %14
w: |||
w: |||
w: |||
w: |||
 [Ad]3 [Ad] [Fd]2 [Fd]2 | [Ed]2 E4 E2 | [FA]3 [FA] [DA]2 [FA]2 | [DF]2 [A,D]6 |] %18
w: ||||
w: ||||
w: ||||
w: ||||
V:2
 x8 | x8 | D3 D2 x3 | x4 (F2 G2) | x8 | x8 | E2 x6 | E4 (E2 G2) || A2 x F2 x3 | D2 x A,2 x3 | x8 | %11
 x8 | x8 | x4 A2 x2 | x8 | x2 E4 E2 | x8 | x8 |] %18
V:3
 [DF]3 [CF] [EF]2 [DF]2 | [A,D]3 [^G,D] [B,D]2 [A,D]2 | D3 [B,D] ([A,C][G,B,]) ([F,A,][E,G,]) | %3
w: ~ ~ ~ ~|~ ~ ~ ~|~ ~ ~ * ~ *|
 [D,F,]2 [B,,D]2 C4 | [D,A,]3 [D,A,] [D,^A,]2 [D,B,]2 | [D,D]3 [D,B,] [D,^G,]2 [D,A,]2 | %6
w: * * ~|~ ~ ~ ~|~ ~ ~ ~|
 (A,B,) [E,C]2 (CD) [E,E]2 | (DC) D2 ([A,C]2 [B,D][CE]) || F2 [DF]2 D2 [A,D]2 | %9
w: ~ * ~ ~ * ~|~ * ~ ~ * *|~ Ring- ing, ring-|
 A,2 [F,A,]2 F,2 [D,F,]2 | [G,B,]3 [A,C] ([B,D][A,C]) [G,B,]2 | [D,D]3 [D,C] [D,D]2 [E,C]2 | %12
w: ing, sing- ing, sing-|ing, Eas- ter * bells|and hap- py voic-|
 [F,D]2 [F,D]2 [E,D]3 [E,D] | [E,D]2 [^E,D]2 [F,C]2 [G,C]2 | [F,D]3 [F,D] [B,D]2 [A,C]2 | %15
w: es; Christ a- rose|on Eas- ter day,|And all the world|
 [G,B,]2 [G,B,]4 [G,B,]2 | [A,C]3 [A,D] [A,B,]2 [A,,C]2 | [D,A,]2 [D,F,]6 |] %18
w: re- joic- es,|And all the world|re- joic-|
V:4
 x8 | x8 | D2 C x5 | x4 (F,2 E,2) | x8 | x8 | E,2 x E,2 x3 | E,4 x4 || (DE) x (A, B,) x3 | %9
 (F,G,) x (D, E,) x3 | x8 | x8 | x8 | x8 | x8 | x8 | x8 | x8 |] %18

